packages/icons/src/SVG/print.svg

<!-- Generated by IcoMoon.io -->
<svg version="1.1" xmlns="http://www.w3.org/2000/svg" width="12" height="12" viewBox="0 0 12 12">
<title>print</title>
<path d="M8 9v1h-4v-1h4z"></path>
<path d="M8 8v-1h-4v1h4z"></path>
<path d="M2 0h8v2h2v6h-2v4h-8v-4h-2v-6h2v-2zM11 3h-10v4h1v-2h8v2h1v-4zM9 2v-1h-6v1h6zM3 6v5h6v-5h-6z"></path>
</svg>

<svg width="12" height="12" viewBox="0 0 12 12" >
<path d="M8 9V10H4V9H8Z" />
<path d="M8 8V7H4V8H8Z" />
<path fill-rule="evenodd" clip-rule="evenodd" d="M2 0V2L0 2V8H2V12H10V8H12V2H10V0H2ZM11 3L1 3V7H2V5H10V7H11V3ZM9 2V1L3 1V2L9 2ZM3 6V11H9V6H3Z" />
</svg>
